icons/marketplace-amazon.svg

<svg width="36" height="36" viewBox="0 0 36 36" fill="none" xmlns="http://www.w3.org/2000/svg">
    <rect x="0.5" y="0.5" width="35" height="35" rx="7.5" fill="white"/>
    <rect x="0.5" y="0.5" width="35" height="35" rx="7.5" stroke="#E9EAEC"/>
    <g clip-path="url(#clip0_2631_399)">
        <path d="M26.6609 25.3764C16.9458 30 10.9164 26.1316 7.05687 23.782C6.81804 23.6339 6.41211 23.8166 6.76431 24.2211C8.05012 25.7802 12.264 29.5381 17.7644 29.5381C23.2685 29.5381 26.5429 26.5347 26.9526 26.0108C27.3594 25.4914 27.072 25.2048 26.6608 25.3764H26.6609ZM29.3894 23.8696C29.1285 23.5299 27.803 23.4665 26.9688 23.569C26.1333 23.6685 24.8793 24.1791 24.9883 24.4857C25.0442 24.6006 25.1584 24.5491 25.7324 24.4975C26.3079 24.44 27.9202 24.2366 28.2561 24.6757C28.5936 25.1179 27.7419 27.2245 27.5863 27.5642C27.436 27.9039 27.6438 27.9915 27.9261 27.7653C28.2045 27.5391 28.7086 26.9533 29.0468 26.1244C29.3828 25.2909 29.5877 24.1283 29.3894 23.8696Z"
              fill="#FF9900"/>
        <path fill-rule="evenodd" clip-rule="evenodd"
              d="M20.1287 15.942C20.1287 17.1551 20.1593 18.1669 19.5461 19.2442C19.0512 20.1202 18.2673 20.6589 17.3913 20.6589C16.1956 20.6589 15.4993 19.7479 15.4993 18.4034C15.4993 15.7492 17.8774 15.2675 20.1287 15.2675V15.942ZM23.2689 23.5321C23.063 23.716 22.7652 23.7292 22.5331 23.6065C21.4995 22.7481 21.3155 22.3495 20.7462 21.5305C19.0381 23.2737 17.8293 23.7948 15.6132 23.7948C12.9941 23.7948 10.9531 22.1787 10.9531 18.9421C10.9531 16.415 12.3241 14.6937 14.2729 13.8529C15.9635 13.1083 18.3242 12.9769 20.1287 12.7711V12.3681C20.1287 11.6279 20.1855 10.752 19.752 10.1126C19.3709 9.53885 18.6439 9.30233 18.0044 9.30233C16.8176 9.30233 15.7577 9.91108 15.4993 11.1724C15.4466 11.4528 15.2409 11.7287 14.9606 11.7419L11.9385 11.4178C11.6846 11.3608 11.4043 11.155 11.4744 10.7651C12.1707 7.10376 15.4773 6 18.438 6C19.9534 6 21.933 6.40297 23.1287 7.55049C24.6441 8.96509 24.4995 10.8527 24.4995 12.9068V17.7596C24.4995 19.218 25.1039 19.8574 25.6732 20.6458C25.8747 20.9261 25.9185 21.2634 25.6645 21.4735C25.0294 22.0034 23.8994 22.9889 23.2776 23.5408L23.2688 23.5321"
              fill="black"/>
        <path d="M26.6609 25.3764C16.9458 30 10.9164 26.1316 7.05687 23.782C6.81804 23.6339 6.41211 23.8166 6.76431 24.2211C8.05012 25.7802 12.264 29.5381 17.7644 29.5381C23.2685 29.5381 26.5429 26.5347 26.9526 26.0108C27.3594 25.4914 27.072 25.2048 26.6608 25.3764H26.6609ZM29.3894 23.8696C29.1285 23.5299 27.803 23.4665 26.9688 23.569C26.1333 23.6685 24.8793 24.1791 24.9883 24.4857C25.0442 24.6006 25.1584 24.5491 25.7324 24.4975C26.3079 24.44 27.9202 24.2366 28.2561 24.6757C28.5936 25.1179 27.7419 27.2245 27.5863 27.5642C27.436 27.9039 27.6438 27.9915 27.9261 27.7653C28.2045 27.5391 28.7086 26.9533 29.0468 26.1244C29.3828 25.2909 29.5877 24.1283 29.3894 23.8696Z"
              fill="#FF9900"/>
        <path fill-rule="evenodd" clip-rule="evenodd"
              d="M20.1287 15.942C20.1287 17.1551 20.1593 18.1669 19.5461 19.2442C19.0512 20.1202 18.2673 20.6589 17.3913 20.6589C16.1956 20.6589 15.4993 19.7479 15.4993 18.4034C15.4993 15.7492 17.8774 15.2675 20.1287 15.2675V15.942ZM23.2689 23.5321C23.063 23.716 22.7652 23.7292 22.5331 23.6065C21.4995 22.7481 21.3155 22.3495 20.7462 21.5305C19.0381 23.2737 17.8293 23.7948 15.6132 23.7948C12.9941 23.7948 10.9531 22.1787 10.9531 18.9421C10.9531 16.415 12.3241 14.6937 14.2729 13.8529C15.9635 13.1083 18.3242 12.9769 20.1287 12.7711V12.3681C20.1287 11.6279 20.1855 10.752 19.752 10.1126C19.3709 9.53885 18.6439 9.30233 18.0044 9.30233C16.8176 9.30233 15.7577 9.91108 15.4993 11.1724C15.4466 11.4528 15.2409 11.7287 14.9606 11.7419L11.9385 11.4178C11.6846 11.3608 11.4043 11.155 11.4744 10.7651C12.1707 7.10376 15.4773 6 18.438 6C19.9534 6 21.933 6.40297 23.1287 7.55049C24.6441 8.96509 24.4995 10.8527 24.4995 12.9068V17.7596C24.4995 19.218 25.1039 19.8574 25.6732 20.6458C25.8747 20.9261 25.9185 21.2634 25.6645 21.4735C25.0294 22.0034 23.8994 22.9889 23.2776 23.5408L23.2688 23.5321"
              fill="black"/>
    </g>
    <defs>
        <clipPath id="clip0_2631_399">
            <rect width="24" height="24" fill="white" transform="translate(6 6)"/>
        </clipPath>
    </defs>
</svg>

<svg xmlns="http://www.w3.org/2000/svg" fill="none" viewBox="0 0 36 36"><rect width="35" height="35" x=".5" y=".5" fill="currentColor" rx="7.5"/><rect width="35" height="35" x=".5" y=".5" stroke="currentColor" rx="7.5"/><g fill="currentColor" clip-path="url(#a)"><path d="M26.66 25.376c-9.714 4.624-15.744.756-19.603-1.594-.239-.148-.645.035-.293.44 1.286 1.558 5.5 5.316 11 5.316 5.505 0 8.779-3.003 9.189-3.527.406-.52.119-.806-.292-.635m2.73-1.506c-.262-.34-1.587-.404-2.421-.301-.836.1-2.09.61-1.98.917.055.115.17.063.743.011.576-.057 2.188-.26 2.524.179.338.442-.514 2.549-.67 2.888-.15.34.058.427.34.201.279-.226.783-.812 1.12-1.64.337-.834.542-1.997.343-2.255"/><path fill-rule="evenodd" d="M20.129 15.942c0 1.213.03 2.225-.583 3.302-.495.876-1.279 1.415-2.155 1.415-1.195 0-1.892-.911-1.892-2.256 0-2.654 2.378-3.135 4.63-3.135zm3.14 7.59a.65.65 0 0 1-.736.075c-1.033-.859-1.218-1.258-1.787-2.076-1.708 1.743-2.917 2.264-5.133 2.264-2.619 0-4.66-1.616-4.66-4.853 0-2.527 1.371-4.248 3.32-5.09 1.69-.744 4.051-.875 5.856-1.08v-.404c0-.74.056-1.616-.377-2.255-.381-.574-1.108-.81-1.748-.81-1.186 0-2.246.608-2.505 1.87-.052.28-.258.556-.538.569l-3.023-.324c-.253-.057-.534-.263-.464-.653C12.171 7.104 15.477 6 18.438 6c1.515 0 3.495.403 4.69 1.55 1.516 1.415 1.372 3.303 1.372 5.357v4.853c0 1.458.604 2.097 1.173 2.886.202.28.246.617-.008.828-.636.53-1.766 1.515-2.387 2.067z" clip-rule="evenodd"/><path d="M26.66 25.376c-9.714 4.624-15.744.756-19.603-1.594-.239-.148-.645.035-.293.44 1.286 1.558 5.5 5.316 11 5.316 5.505 0 8.779-3.003 9.189-3.527.406-.52.119-.806-.292-.635m2.73-1.506c-.262-.34-1.587-.404-2.421-.301-.836.1-2.09.61-1.98.917.055.115.17.063.743.011.576-.057 2.188-.26 2.524.179.338.442-.514 2.549-.67 2.888-.15.34.058.427.34.201.279-.226.783-.812 1.12-1.64.337-.834.542-1.997.343-2.255"/><path fill-rule="evenodd" d="M20.129 15.942c0 1.213.03 2.225-.583 3.302-.495.876-1.279 1.415-2.155 1.415-1.195 0-1.892-.911-1.892-2.256 0-2.654 2.378-3.135 4.63-3.135zm3.14 7.59a.65.65 0 0 1-.736.075c-1.033-.859-1.218-1.258-1.787-2.076-1.708 1.743-2.917 2.264-5.133 2.264-2.619 0-4.66-1.616-4.66-4.853 0-2.527 1.371-4.248 3.32-5.09 1.69-.744 4.051-.875 5.856-1.08v-.404c0-.74.056-1.616-.377-2.255-.381-.574-1.108-.81-1.748-.81-1.186 0-2.246.608-2.505 1.87-.052.28-.258.556-.538.569l-3.023-.324c-.253-.057-.534-.263-.464-.653C12.171 7.104 15.477 6 18.438 6c1.515 0 3.495.403 4.69 1.55 1.516 1.415 1.372 3.303 1.372 5.357v4.853c0 1.458.604 2.097 1.173 2.886.202.28.246.617-.008.828-.636.53-1.766 1.515-2.387 2.067z" clip-rule="evenodd"/></g><defs><clipPath id="a"><path fill="currentColor" d="M6 6h24v24H6z"/></clipPath></defs></svg>
